fa/twitch.svg

<svg xmlns="http://www.w3.org/2000/svg" viewBox="0 0 512 512" height="1em" width="1em">
  <path d="M391.17 103.47h-38.63v109.7h38.63ZM285 103h-38.63v109.75H285ZM120.83 0 24.31 91.42v329.16h115.83V512l96.53-91.42h77.25L487.69 256V0Zm328.24 237.75-77.22 73.12h-77.24l-67.6 64v-64h-86.87V36.58h308.93Z"/>
</svg>

<svg xmlns="http://www.w3.org/2000/svg" viewBox="0 0 512 512" height="1em" width="1em">
  <path d="M391.17,103.47H352.54v109.7h38.63ZM285,103H246.37V212.75H285ZM120.83,0,24.31,91.42V420.58H140.14V512l96.53-91.42h77.25L487.69,256V0ZM449.07,237.75l-77.22,73.12H294.61l-67.6,64v-64H140.14V36.58H449.07Z"/>
</svg>
